X: 21392
M: 6/8
L: 1/8
K: D
V: 1 name="5"
a/g/ |\
f2g e2f | d3 A2d | (B2g) (e2a) | f3 (d2a) |\
(f2g) e2f | d3 A2d | B2g e2a | d3 d2 H|]
f |\
e2f g2e | f2g a2f | e2f g2e | f3 d2f |\
e2f g2e | f2b a2d' | c'2b a2^g | ac'=g fg"^D.C."e |]


